X: 376
T: Sprigs of Laurel for Admiral Nelson
%R: reel, march
Z: 2014 John Chambers <jc:trillian.mit.edu>
B: Preston "Twenty four Country Dances for the Year 1799" p.168 #2
F: http://www.vwml.org/browse/browse-collections-dance-tune-books/browse-prestons1799# 2014-8-10
N: The 2nd strain has initial repeat but no final repeat; not fixed.
N: Should there be a D.C. at the end, and an AABA repeat pattern?
M: 2/4
L: 1/8
K: D
a |\
fafa | a>gfa | gfge | f/g/f/e/ da |\
fafa | a>gfa | gfge | d3 H:|
|: A |\
d>efd | c>BAA | B>cdB | AGFA |\
d>efd | c>BAA | GFED | A3 |]
% - - - - - - - - - - - - - - - - - - - - - - - - -
%%begintext align
%% Right hands across .| Left hands back :|
%% lead down the middle foot it :|. Le Poussette
%% with the top Cu: :|:
%%endtext
% - - - - - - - - - - - - - - - - - - - - - - - - -
